static/images/skills/postgres.svg

<svg xmlns="http://www.w3.org/2000/svg" xml:space="preserve" style="fill-rule:evenodd;clip-rule:evenodd;stroke-linejoin:round;stroke-miterlimit:2" viewBox="0 0 1200 900"><path d="M0 0h1200v900H0z" style="fill:#336791"/><path d="M93.809 92.112c.785-6.533.55-7.492 5.416-6.433l1.235.108c3.742.17 8.637-.602 11.513-1.938 6.191-2.873 9.861-7.668 3.758-6.409-13.924 2.873-14.881-1.842-14.881-1.842 14.703-21.815 20.849-49.508 15.543-56.287-14.47-18.489-39.517-9.746-39.936-9.52l-.134.025c-2.751-.571-5.83-.912-9.289-.968-6.301-.104-11.082 1.652-14.709 4.402 0 0-44.683-18.409-42.604 23.151.442 8.841 12.672 66.898 27.26 49.362 5.332-6.412 10.484-11.834 10.484-11.834 2.558 1.699 5.622 2.567 8.834 2.255l.249-.212c-.078.796-.044 1.575.099 2.497-3.757 4.199-2.653 4.936-10.166 6.482-7.602 1.566-3.136 4.355-.221 5.084 3.535.884 11.712 2.136 17.238-5.598l-.22.882c1.474 1.18 1.375 8.477 1.583 13.69.209 5.214.558 10.079 1.621 12.948s2.317 10.256 12.191 8.14c8.252-1.764 14.561-4.309 15.136-27.985" style="fill-rule:nonzero" transform="translate(285.263 136.56)scale(4.89747)"/><path d="M75.458 125.256c-4.367 0-7.211-1.689-8.938-3.32-2.607-2.46-3.641-5.629-4.259-7.522l-.267-.79c-1.244-3.358-1.666-8.193-1.916-14.419-.038-.935-.064-1.898-.093-2.919-.021-.747-.047-1.684-.085-2.664a18.8 18.8 0 0 1-4.962 1.568c-3.079.526-6.389.356-9.84-.507-2.435-.609-4.965-1.871-6.407-3.82-4.203 3.681-8.212 3.182-10.396 2.453-3.853-1.285-7.301-4.896-10.542-11.037-2.309-4.375-4.542-10.075-6.638-16.943-3.65-11.96-5.969-24.557-6.175-28.693C4.292 23.698 7.777 14.44 15.296 9.129 27.157.751 45.128 5.678 51.68 7.915c4.402-2.653 9.581-3.944 15.433-3.851 3.143.051 6.136.327 8.916.823 2.9-.912 8.628-2.221 15.185-2.139 12.081.144 22.092 4.852 28.949 13.615 4.894 6.252 2.474 19.381.597 26.651-2.642 10.226-7.271 21.102-12.957 30.57 1.544.011 3.781-.174 6.961-.831 6.274-1.295 8.109 2.069 8.607 3.575 1.995 6.042-6.677 10.608-9.382 11.864-3.466 1.609-9.117 2.589-13.745 2.377l-.202-.013-1.216-.107-.12 1.014-.116.991c-.311 11.999-2.025 19.598-5.552 24.619-3.697 5.264-8.835 6.739-13.361 7.709-1.544.33-2.947.474-4.219.474m-9.19-43.671c2.819 2.256 3.066 6.501 3.287 14.434.028.99.054 1.927.089 2.802.106 2.65.355 8.855 1.327 11.477.137.371.26.747.39 1.146 1.083 3.316 1.626 4.979 6.309 3.978 3.931-.843 5.952-1.599 7.534-3.851 2.299-3.274 3.585-9.86 3.821-19.575l4.783.116-4.75-.57.14-1.186c.455-3.91.783-6.734 3.396-8.602 2.097-1.498 4.486-1.353 6.389-1.01-2.091-1.58-2.669-3.433-2.823-4.193l-.399-1.965 1.121-1.663c6.457-9.58 11.781-21.354 14.609-32.304 2.906-11.251 2.02-17.226 1.134-18.356-11.729-14.987-32.068-8.799-34.192-8.097l-.359.194-1.8.335-.922-.191c-2.542-.528-5.366-.82-8.393-.869-4.756-.08-8.593 1.044-11.739 3.431l-2.183 1.655-2.533-1.043c-5.412-2.213-21.308-6.662-29.696-.721-4.656 3.298-6.777 9.76-6.305 19.207.156 3.119 2.275 14.926 5.771 26.377 4.831 15.825 9.221 21.082 11.054 21.693.32.108 1.15-.537 1.976-1.529a270 270 0 0 1 10.694-12.07l2.77-2.915 3.349 2.225c1.35.897 2.839 1.406 4.368 1.502l7.987-6.812-1.157 11.808c-.026.265-.039.626.065 1.296l.348 2.238-1.51 1.688-.174.196 4.388 2.025z" style="fill-rule:nonzero" transform="translate(285.263 136.56)scale(4.89747)"/><path d="M115.731 77.44c-13.925 2.873-14.882-1.842-14.882-1.842 14.703-21.816 20.849-49.51 15.545-56.287C101.924.823 76.875 9.566 76.457 9.793l-.135.024c-2.751-.571-5.83-.911-9.291-.967-6.301-.103-11.08 1.652-14.707 4.402 0 0-44.684-18.408-42.606 23.151.442 8.842 12.672 66.899 27.26 49.363 5.332-6.412 10.483-11.834 10.483-11.834 2.559 1.699 5.622 2.567 8.833 2.255l.25-.212c-.078.796-.042 1.575.1 2.497-3.758 4.199-2.654 4.936-10.167 6.482-7.602 1.566-3.136 4.355-.22 5.084 3.534.884 11.712 2.136 17.237-5.598l-.221.882c1.473 1.18 2.507 7.672 2.334 13.557s-.29 9.926.871 13.082c1.16 3.156 2.316 10.256 12.192 8.14 8.252-1.768 12.528-6.351 13.124-13.995.422-5.435 1.377-4.631 1.438-9.49l.767-2.3c.884-7.367.14-9.743 5.225-8.638l1.235.108c3.742.17 8.639-.602 11.514-1.938 6.19-2.871 9.861-7.667 3.758-6.408" style="fill:#336791;fill-rule:nonzero" transform="translate(285.263 136.56)scale(4.89747)"/><path d="M75.957 122.307c-8.232 0-10.84-6.519-11.907-9.185-1.562-3.907-1.899-19.069-1.551-31.503a1.597 1.597 0 0 1 1.64-1.55 1.6 1.6 0 0 1 1.551 1.593l-.001.046c-.401 14.341.168 27.337 1.324 30.229 1.804 4.509 4.54 8.453 12.275 6.796 7.343-1.575 10.093-4.359 11.318-11.46.94-5.449 2.799-20.951 3.028-24.01a1.6 1.6 0 0 1 1.71-1.472 1.605 1.605 0 0 1 1.472 1.71c-.239 3.185-2.089 18.657-3.065 24.315-1.446 8.387-5.185 12.191-13.794 14.037-1.463.313-2.792.453-4 .454M31.321 90.466a6.7 6.7 0 0 1-2.116-.35c-5.347-1.784-10.44-10.492-15.138-25.885-3.576-11.717-5.842-23.947-6.041-27.922-.589-11.784 2.445-20.121 9.02-24.778 13.007-9.216 34.888-.44 35.813-.062.599.245.993.83.993 1.477 0 .876-.721 1.597-1.597 1.597-.206 0-.411-.041-.603-.119-.211-.086-21.193-8.492-32.768-.285-5.622 3.986-8.203 11.392-7.672 22.011.167 3.349 2.284 15.285 5.906 27.149 4.194 13.742 8.967 22.413 13.096 23.79.648.216 2.62.873 5.439-2.517A245 245 0 0 1 45.88 73.046a1.6 1.6 0 0 1 1.127-.466c.876 0 1.596.72 1.596 1.596 0 .399-.15.784-.419 1.078-.048.05-4.847 5.067-10.077 11.359-2.477 2.979-4.851 3.853-6.786 3.853m69.429-13.445a1.603 1.603 0 0 1-1.594-1.596c0-.317.095-.628.272-.891 14.863-22.055 20.08-48.704 15.612-54.414-5.624-7.186-13.565-10.939-23.604-11.156-7.433-.16-13.341 1.738-14.307 2.069l-.243.099c-.971.305-1.716-.227-1.997-.849a1.606 1.606 0 0 1 .631-2.025c.046-.027.192-.089.429-.176l-.021.006.021-.007c1.641-.601 7.639-2.4 15.068-2.315 11.108.118 20.284 4.401 26.534 12.388 2.957 3.779 2.964 12.485.019 23.887-3.002 11.625-8.651 24.118-15.497 34.277-.306.457-.81.703-1.323.703m.76 10.21c-2.538 0-4.813-.358-6.175-1.174-1.4-.839-1.667-1.979-1.702-2.584-.382-6.71 3.32-7.878 5.208-8.411-.263-.398-.637-.866-1.024-1.349-1.101-1.376-2.609-3.26-3.771-6.078-.182-.44-.752-1.463-1.412-2.648-3.579-6.418-11.026-19.773-6.242-26.612 2.214-3.165 6.623-4.411 13.119-3.716C97.6 28.837 88.5 10.625 66.907 10.271c-6.494-.108-11.82 1.889-15.822 5.93-8.96 9.049-8.636 25.422-8.631 25.586l.001.042c0 .875-.721 1.596-1.596 1.596a1.604 1.604 0 0 1-1.595-1.554c-.02-.727-.354-17.909 9.554-27.916C53.455 9.272 59.559 6.96 66.96 7.081c13.814.227 22.706 7.25 27.732 13.101 5.479 6.377 8.165 13.411 8.386 15.759.165 1.746-1.088 2.095-1.341 2.147l-.576.013c-6.375-1.021-10.465-.312-12.156 2.104-3.639 5.201 3.406 17.834 6.414 23.229.768 1.376 1.322 2.371 1.576 2.985.988 2.396 2.277 4.006 3.312 5.3.911 1.138 1.7 2.125 1.982 3.283.131.23 1.99 2.98 13.021.703 2.765-.57 4.423-.083 4.93 1.45.997 3.015-4.597 6.532-7.694 7.97-2.775 1.29-7.204 2.106-11.036 2.106m-4.696-4.021c.35.353 2.101.962 5.727.806 3.224-.138 6.624-.839 8.664-1.786 2.609-1.212 4.351-2.567 5.253-3.492l-.5.092c-7.053 1.456-12.042 1.262-14.828-.577a6 6 0 0 1-.54-.401c-.302.119-.581.197-.78.253-1.58.443-3.214.902-2.996 5.105m-45.562 8.915c-1.752 0-3.596-.239-5.479-.71-1.951-.488-5.24-1.957-5.19-4.37.057-2.707 3.994-3.519 5.476-3.824 5.354-1.103 5.703-1.545 7.376-3.67.488-.619 1.095-1.39 1.923-2.314 1.229-1.376 2.572-2.073 3.992-2.073.989 0 1.8.335 2.336.558 1.708.708 3.133 2.42 3.719 4.467.529 1.847.276 3.625-.71 5.006-3.237 4.533-7.886 6.93-13.443 6.93m-7.222-4.943c.481.372 1.445.869 2.518 1.137 1.631.408 3.213.615 4.705.615 4.546 0 8.196-1.882 10.847-5.594.553-.774.387-1.757.239-2.274-.31-1.083-1.08-2.068-1.873-2.397-.43-.178-.787-.314-1.115-.314-.176 0-.712 0-1.614 1.009a41 41 0 0 0-1.794 2.162c-2.084 2.646-3.039 3.544-9.239 4.821-1.513.31-2.289.626-2.674.835m12.269-7.36a1.6 1.6 0 0 1-1.575-1.354 8 8 0 0 1-.08-.799c-4.064-.076-7.985-1.82-10.962-4.926-3.764-3.927-5.477-9.368-4.699-14.927.845-6.037.529-11.366.359-14.229-.047-.796-.081-1.371-.079-1.769.003-.505.013-1.844 4.489-4.113 1.592-.807 4.784-2.215 8.271-2.576 5.777-.597 9.585 1.976 10.725 7.246 3.077 14.228.244 20.521-1.825 25.117-.385.856-.749 1.664-1.04 2.447l-.257.69c-1.093 2.931-2.038 5.463-1.748 7.354q.019.12.019.242a1.6 1.6 0 0 1-1.354 1.577zM42.464 42.26l.062 1.139c.176 2.974.504 8.508-.384 14.86-.641 4.585.759 9.06 3.843 12.276 2.437 2.542 5.644 3.945 8.94 3.945h.068c.369-1.555.982-3.197 1.642-4.966l.255-.686c.329-.884.714-1.74 1.122-2.646 1.991-4.424 4.47-9.931 1.615-23.132-.565-2.615-1.936-4.128-4.189-4.627-4.628-1.022-11.525 2.459-12.974 3.837m9.63-.677c-.08.564 1.033 2.07 2.485 2.271 1.449.203 2.689-.975 2.768-1.539s-1.033-1.186-2.485-1.388-2.691.092-2.768.656m2.818 2.826-.407-.028c-.9-.125-1.81-.692-2.433-1.518-.219-.29-.576-.852-.505-1.354.101-.736.999-1.177 2.4-1.177.313 0 .639.023.967.069.766.106 1.477.327 2.002.62.91.508.977 1.075.936 1.368-.112.813-1.405 2.02-2.96 2.02m-2.289-2.732c.045.348.907 1.496 2.029 1.651l.261.018c1.036 0 1.81-.815 1.901-1.082-.096-.182-.762-.634-2.025-.81a6 6 0 0 0-.821-.059c-.812 0-1.243.183-1.345.282m43.605-1.245c.079.564-1.033 2.07-2.484 2.272-1.45.202-2.691-.975-2.771-1.539-.076-.564 1.036-1.187 2.486-1.388 1.45-.203 2.689.092 2.769.655m-2.819 2.56c-1.396 0-2.601-1.086-2.7-1.791-.115-.846 1.278-1.489 2.712-1.688.316-.044.629-.066.93-.066 1.238 0 2.058.363 2.14.949.053.379-.238.964-.739 1.492-.331.347-1.026.948-1.973 1.079zm.943-3.013q-.416 0-.856.061c-1.441.201-2.301.779-2.259 1.089.048.341.968 1.332 2.173 1.332l.297-.021c.787-.109 1.378-.623 1.66-.919.443-.465.619-.903.598-1.052-.028-.198-.56-.49-1.613-.49m3.965 32.843zc-.874 0-1.594-.72-1.594-1.594 0-.317.094-.626.271-.889 3.398-5.075 2.776-10.25 2.175-15.255-.257-2.132-.521-4.337-.453-6.453.07-2.177.347-3.973.614-5.71.317-2.058.617-4.002.493-6.31q-.002-.043-.002-.086c0-.875.72-1.595 1.595-1.595.843 0 1.548.667 1.593 1.509.142 2.638-.197 4.838-.525 6.967-.253 1.643-.515 3.342-.578 5.327-.061 1.874.178 3.864.431 5.97.64 5.322 1.365 11.354-2.691 17.411a1.6 1.6 0 0 1-1.328.708" style="fill:#fff;fill-rule:nonzero" transform="translate(285.263 136.56)scale(4.89747)"/></svg>

<?xml version="1.0" encoding="UTF-8" standalone="no"?>
<!DOCTYPE svg PUBLIC "-//W3C//DTD SVG 1.1//EN" "http://www.w3.org/Graphics/SVG/1.1/DTD/svg11.dtd">
<svg width="100%" height="100%" viewBox="0 0 1200 900" version="1.1" xmlns="http://www.w3.org/2000/svg" xmlns:xlink="http://www.w3.org/1999/xlink" xml:space="preserve" xmlns:serif="http://www.serif.com/" style="fill-rule:evenodd;clip-rule:evenodd;stroke-linejoin:round;stroke-miterlimit:2;">
    <rect x="0" y="0" width="1200" height="900" style="fill:rgb(51,103,145);"/>
    <g transform="matrix(4.79233,0,0,4.79233,293.291,143.291)">
        <g transform="matrix(1.02194,0,0,1.02194,-1.67517,-1.40455)">
            <path d="M93.809,92.112C94.594,85.579 94.359,84.62 99.225,85.679L100.46,85.787C104.202,85.957 109.097,85.185 111.973,83.849C118.164,80.976 121.834,76.181 115.731,77.44C101.807,80.313 100.85,75.598 100.85,75.598C115.553,53.783 121.699,26.09 116.393,19.311C101.923,0.822 76.876,9.565 76.457,9.791L76.323,9.816C73.572,9.245 70.493,8.904 67.034,8.848C60.733,8.744 55.952,10.5 52.325,13.25C52.325,13.25 7.642,-5.159 9.721,36.401C10.163,45.242 22.393,103.299 36.981,85.763C42.313,79.351 47.465,73.929 47.465,73.929C50.023,75.628 53.087,76.496 56.299,76.184L56.548,75.972C56.47,76.768 56.504,77.547 56.647,78.469C52.89,82.668 53.994,83.405 46.481,84.951C38.879,86.517 43.345,89.306 46.26,90.035C49.795,90.919 57.972,92.171 63.498,84.437L63.278,85.319C64.752,86.499 64.653,93.796 64.861,99.009C65.07,104.223 65.419,109.088 66.482,111.957C67.545,114.825 68.799,122.213 78.673,120.097C86.925,118.333 93.234,115.788 93.809,92.112" style="fill-rule:nonzero;"/>
        </g>
        <g transform="matrix(1.02194,0,0,1.02194,-1.67517,-1.40455)">
            <path d="M75.458,125.256C71.091,125.256 68.247,123.567 66.52,121.936C63.913,119.476 62.879,116.307 62.261,114.414L61.994,113.624C60.75,110.266 60.328,105.431 60.078,99.205C60.04,98.27 60.014,97.307 59.985,96.286C59.964,95.539 59.938,94.602 59.9,93.622C58.327,94.372 56.657,94.9 54.938,95.19C51.859,95.716 48.549,95.546 45.098,94.683C42.663,94.074 40.133,92.812 38.691,90.863C34.488,94.544 30.479,94.045 28.295,93.316C24.442,92.031 20.994,88.42 17.753,82.279C15.444,77.904 13.211,72.204 11.115,65.336C7.465,53.376 5.146,40.779 4.94,36.643C4.292,23.698 7.777,14.44 15.296,9.129C27.157,0.751 45.128,5.678 51.68,7.915C56.082,5.262 61.261,3.971 67.113,4.064C70.256,4.115 73.249,4.391 76.029,4.887C78.929,3.975 84.657,2.666 91.214,2.748C103.295,2.892 113.306,7.6 120.163,16.363C125.057,22.615 122.637,35.744 120.76,43.014C118.118,53.24 113.489,64.116 107.803,73.584C109.347,73.595 111.584,73.41 114.764,72.753C121.038,71.458 122.873,74.822 123.371,76.328C125.366,82.37 116.694,86.936 113.989,88.192C110.523,89.801 104.872,90.781 100.244,90.569L100.042,90.556L98.826,90.449L98.706,91.463L98.59,92.454C98.279,104.453 96.565,112.052 93.038,117.073C89.341,122.337 84.203,123.812 79.677,124.782C78.133,125.112 76.73,125.256 75.458,125.256ZM66.268,81.585C69.087,83.841 69.334,88.086 69.555,96.019C69.583,97.009 69.609,97.946 69.644,98.821C69.75,101.471 69.999,107.676 70.971,110.298C71.108,110.669 71.231,111.045 71.361,111.444C72.444,114.76 72.987,116.423 77.67,115.422C81.601,114.579 83.622,113.823 85.204,111.571C87.503,108.297 88.789,101.711 89.025,91.996L93.808,92.112L89.058,91.542L89.198,90.356C89.653,86.446 89.981,83.622 92.594,81.754C94.691,80.256 97.08,80.401 98.983,80.744C96.892,79.164 96.314,77.311 96.16,76.551L95.761,74.586L96.882,72.923C103.339,63.343 108.663,51.569 111.491,40.619C114.397,29.368 113.511,23.393 112.625,22.263C100.896,7.276 80.557,13.464 78.433,14.166L78.074,14.36L76.274,14.695L75.352,14.504C72.81,13.976 69.986,13.684 66.959,13.635C62.203,13.555 58.366,14.679 55.22,17.066L53.037,18.721L50.504,17.678C45.092,15.465 29.196,11.016 20.808,16.957C16.152,20.255 14.031,26.717 14.503,36.164C14.659,39.283 16.778,51.09 20.274,62.541C25.105,78.366 29.495,83.623 31.328,84.234C31.648,84.342 32.478,83.697 33.304,82.705C36.748,78.576 40.314,74.551 43.998,70.635L46.768,67.72L50.117,69.945C51.467,70.842 52.956,71.351 54.485,71.447L62.472,64.635L61.315,76.443C61.289,76.708 61.276,77.069 61.38,77.739L61.728,79.977L60.218,81.665L60.044,81.861L64.432,83.886L66.268,81.585Z" style="fill-rule:nonzero;"/>
        </g>
        <g transform="matrix(1.02194,0,0,1.02194,-1.67517,-1.40455)">
            <path d="M115.731,77.44C101.806,80.313 100.849,75.598 100.849,75.598C115.552,53.782 121.698,26.088 116.394,19.311C101.924,0.823 76.875,9.566 76.457,9.793L76.322,9.817C73.571,9.246 70.492,8.906 67.031,8.85C60.73,8.747 55.951,10.502 52.324,13.252C52.324,13.252 7.64,-5.156 9.718,36.403C10.16,45.245 22.39,103.302 36.978,85.766C42.31,79.354 47.461,73.932 47.461,73.932C50.02,75.631 53.083,76.499 56.294,76.187L56.544,75.975C56.466,76.771 56.502,77.55 56.644,78.472C52.886,82.671 53.99,83.408 46.477,84.954C38.875,86.52 43.341,89.309 46.257,90.038C49.791,90.922 57.969,92.174 63.494,84.44L63.273,85.322C64.746,86.502 65.78,92.994 65.607,98.879C65.433,104.764 65.317,108.805 66.478,111.961C67.638,115.117 68.794,122.217 78.67,120.101C86.922,118.333 91.198,113.75 91.794,106.106C92.216,100.671 93.171,101.475 93.232,96.616L93.999,94.316C94.883,86.949 94.139,84.573 99.224,85.678L100.459,85.786C104.201,85.956 109.098,85.184 111.973,83.848C118.163,80.977 121.834,76.181 115.731,77.44Z" style="fill:rgb(51,103,145);fill-rule:nonzero;"/>
        </g>
        <g transform="matrix(1.02194,0,0,1.02194,-1.67517,-1.40455)">
            <path d="M75.957,122.307C67.725,122.307 65.117,115.788 64.05,113.122C62.488,109.215 62.151,94.053 62.499,81.619C62.52,80.762 63.231,80.068 64.089,80.068C64.105,80.068 64.122,80.068 64.139,80.069C64.997,80.092 65.69,80.804 65.69,81.662C65.69,81.678 65.689,81.693 65.689,81.708C65.288,96.049 65.857,109.045 67.013,111.937C68.817,116.446 71.553,120.39 79.288,118.733C86.631,117.158 89.381,114.374 90.606,107.273C91.546,101.824 93.405,86.322 93.634,83.263C93.695,82.435 94.393,81.786 95.223,81.786C95.263,81.786 95.304,81.788 95.344,81.791C96.216,81.857 96.88,82.628 96.816,83.501C96.577,86.686 94.727,102.158 93.751,107.816C92.305,116.203 88.566,120.007 79.957,121.853C78.494,122.166 77.165,122.306 75.957,122.307ZM31.321,90.466C30.601,90.464 29.887,90.345 29.205,90.116C23.858,88.332 18.765,79.624 14.067,64.231C10.491,52.514 8.225,40.284 8.026,36.309C7.437,24.525 10.471,16.188 17.046,11.531C30.053,2.315 51.934,11.091 52.859,11.469C53.458,11.714 53.852,12.299 53.852,12.946C53.852,13.822 53.131,14.543 52.255,14.543C52.049,14.543 51.844,14.502 51.652,14.424C51.441,14.338 30.459,5.932 18.884,14.139C13.262,18.125 10.681,25.531 11.212,36.15C11.379,39.499 13.496,51.435 17.118,63.299C21.312,77.041 26.085,85.712 30.214,87.089C30.862,87.305 32.834,87.962 35.653,84.572C38.94,80.624 42.351,76.78 45.88,73.046C46.179,72.748 46.585,72.58 47.007,72.58C47.883,72.58 48.603,73.3 48.603,74.176C48.603,74.575 48.453,74.96 48.184,75.254C48.136,75.304 43.337,80.321 38.107,86.613C35.63,89.592 33.256,90.466 31.321,90.466ZM100.75,77.021C99.875,77.02 99.156,76.3 99.156,75.425C99.156,75.108 99.251,74.797 99.428,74.534C114.291,52.479 119.508,25.83 115.04,20.12C109.416,12.934 101.475,9.181 91.436,8.964C84.003,8.804 78.095,10.702 77.129,11.033L76.886,11.132C75.915,11.437 75.17,10.905 74.889,10.283C74.559,9.549 74.832,8.675 75.52,8.258C75.566,8.231 75.712,8.169 75.949,8.082L75.928,8.088L75.949,8.081C77.59,7.48 83.588,5.681 91.017,5.766C102.125,5.884 111.301,10.167 117.551,18.154C120.508,21.933 120.515,30.639 117.57,42.041C114.568,53.666 108.919,66.159 102.073,76.318C101.767,76.775 101.263,77.021 100.75,77.021ZM101.51,87.231C98.972,87.231 96.697,86.873 95.335,86.057C93.935,85.218 93.668,84.078 93.633,83.473C93.251,76.763 96.953,75.595 98.841,75.062C98.578,74.664 98.204,74.196 97.817,73.713C96.716,72.337 95.208,70.453 94.046,67.635C93.864,67.195 93.294,66.172 92.634,64.987C89.055,58.569 81.608,45.214 86.392,38.375C88.606,35.21 93.015,33.964 99.511,34.659C97.6,28.837 88.5,10.625 66.907,10.271C60.413,10.163 55.087,12.16 51.085,16.201C42.125,25.25 42.449,41.623 42.454,41.787C42.454,41.801 42.455,41.815 42.455,41.829C42.455,42.704 41.734,43.425 40.859,43.425C40,43.425 39.287,42.73 39.264,41.871C39.244,41.144 38.91,23.962 48.818,13.955C53.455,9.272 59.559,6.96 66.96,7.081C80.774,7.308 89.666,14.331 94.692,20.182C100.171,26.559 102.857,33.593 103.078,35.941C103.243,37.687 101.99,38.036 101.737,38.088L101.161,38.101C94.786,37.08 90.696,37.789 89.005,40.205C85.366,45.406 92.411,58.039 95.419,63.434C96.187,64.81 96.741,65.805 96.995,66.419C97.983,68.815 99.272,70.425 100.307,71.719C101.218,72.857 102.007,73.844 102.289,75.002C102.42,75.232 104.279,77.982 115.31,75.705C118.075,75.135 119.733,75.622 120.24,77.155C121.237,80.17 115.643,83.687 112.546,85.125C109.771,86.415 105.342,87.231 101.51,87.231ZM96.814,83.21C97.164,83.563 98.915,84.172 102.541,84.016C105.765,83.878 109.165,83.177 111.205,82.23C113.814,81.018 115.556,79.663 116.458,78.738L115.958,78.83C108.905,80.286 103.916,80.092 101.13,78.253C100.943,78.129 100.763,77.995 100.59,77.852C100.288,77.971 100.009,78.049 99.81,78.105C98.23,78.548 96.596,79.007 96.814,83.21ZM51.252,92.125C49.5,92.125 47.656,91.886 45.773,91.415C43.822,90.927 40.533,89.458 40.583,87.045C40.64,84.338 44.577,83.526 46.059,83.221C51.413,82.118 51.762,81.676 53.435,79.551C53.923,78.932 54.53,78.161 55.358,77.237C56.587,75.861 57.93,75.164 59.35,75.164C60.339,75.164 61.15,75.499 61.686,75.722C63.394,76.43 64.819,78.142 65.405,80.189C65.934,82.036 65.681,83.814 64.695,85.195C61.458,89.728 56.809,92.125 51.252,92.125ZM44.03,87.182C44.511,87.554 45.475,88.051 46.548,88.319C48.179,88.727 49.761,88.934 51.253,88.934C55.799,88.934 59.449,87.052 62.1,83.34C62.653,82.566 62.487,81.583 62.339,81.066C62.029,79.983 61.259,78.998 60.466,78.669C60.036,78.491 59.679,78.355 59.351,78.355C59.175,78.355 58.639,78.355 57.737,79.364C57.115,80.064 56.516,80.785 55.943,81.526C53.859,84.172 52.904,85.07 46.704,86.347C45.191,86.657 44.415,86.973 44.03,87.182ZM56.299,79.822C55.515,79.821 54.843,79.243 54.724,78.468C54.684,78.203 54.658,77.936 54.644,77.669C50.58,77.593 46.659,75.849 43.682,72.743C39.918,68.816 38.205,63.375 38.983,57.816C39.828,51.779 39.512,46.45 39.342,43.587C39.295,42.791 39.261,42.216 39.263,41.818C39.266,41.313 39.276,39.974 43.752,37.705C45.344,36.898 48.536,35.49 52.023,35.129C57.8,34.532 61.608,37.105 62.748,42.375C65.825,56.603 62.992,62.896 60.923,67.492C60.538,68.348 60.174,69.156 59.883,69.939L59.626,70.629C58.533,73.56 57.588,76.092 57.878,77.983C57.89,78.063 57.897,78.144 57.897,78.225C57.897,79.01 57.318,79.683 56.543,79.802L56.299,79.822ZM42.464,42.26L42.526,43.399C42.702,46.373 43.03,51.907 42.142,58.259C41.501,62.844 42.901,67.319 45.985,70.535C48.422,73.077 51.629,74.48 54.925,74.48L54.993,74.48C55.362,72.925 55.975,71.283 56.635,69.514L56.89,68.828C57.219,67.944 57.604,67.088 58.012,66.182C60.003,61.758 62.482,56.251 59.627,43.05C59.062,40.435 57.691,38.922 55.438,38.423C50.81,37.401 43.913,40.882 42.464,42.26ZM52.094,41.583C52.014,42.147 53.127,43.653 54.579,43.854C56.028,44.057 57.268,42.879 57.347,42.315C57.426,41.751 56.314,41.129 54.862,40.927C53.411,40.725 52.171,41.019 52.094,41.583ZM54.912,44.409L54.505,44.381C53.605,44.256 52.695,43.689 52.072,42.863C51.853,42.573 51.496,42.011 51.567,41.509C51.668,40.773 52.566,40.332 53.967,40.332C54.28,40.332 54.606,40.355 54.934,40.401C55.7,40.507 56.411,40.728 56.936,41.021C57.846,41.529 57.913,42.096 57.872,42.389C57.76,43.202 56.467,44.409 54.912,44.409ZM52.623,41.677C52.668,42.025 53.53,43.173 54.652,43.328L54.913,43.346C55.949,43.346 56.723,42.531 56.814,42.264C56.718,42.082 56.052,41.63 54.789,41.454C54.517,41.415 54.243,41.395 53.968,41.395C53.156,41.395 52.725,41.578 52.623,41.677ZM96.228,40.432C96.307,40.996 95.195,42.502 93.744,42.704C92.294,42.906 91.053,41.729 90.973,41.165C90.897,40.601 92.009,39.978 93.459,39.777C94.909,39.574 96.148,39.869 96.228,40.432ZM93.409,42.992C92.013,42.992 90.808,41.906 90.709,41.201C90.594,40.355 91.987,39.712 93.421,39.513C93.737,39.469 94.05,39.447 94.351,39.447C95.589,39.447 96.409,39.81 96.491,40.396C96.544,40.775 96.253,41.36 95.752,41.888C95.421,42.235 94.726,42.836 93.779,42.967L93.409,42.992ZM94.352,39.979C94.076,39.979 93.788,40 93.496,40.04C92.055,40.241 91.195,40.819 91.237,41.129C91.285,41.47 92.205,42.461 93.41,42.461L93.707,42.44C94.494,42.331 95.085,41.817 95.367,41.521C95.81,41.056 95.986,40.618 95.965,40.469C95.937,40.271 95.405,39.979 94.352,39.979ZM98.317,72.822C98.317,72.822 98.316,72.822 98.316,72.822C97.442,72.822 96.722,72.102 96.722,71.228C96.722,70.911 96.816,70.602 96.993,70.339C100.391,65.264 99.769,60.089 99.168,55.084C98.911,52.952 98.647,50.747 98.715,48.631C98.785,46.454 99.062,44.658 99.329,42.921C99.646,40.863 99.946,38.919 99.822,36.611C99.82,36.582 99.82,36.554 99.82,36.525C99.82,35.65 100.54,34.93 101.415,34.93C102.258,34.93 102.963,35.597 103.008,36.439C103.15,39.077 102.811,41.277 102.483,43.406C102.23,45.049 101.968,46.748 101.905,48.733C101.844,50.607 102.083,52.597 102.336,54.703C102.976,60.025 103.701,66.057 99.645,72.114C99.349,72.557 98.85,72.823 98.317,72.822Z" style="fill:white;fill-rule:nonzero;"/>
        </g>
    </g>
</svg>
